!!!SOCIAL_FUNCTION: songs with games
!!!SOCIAL_FUNCTION2: ball game
!!!PDT:	1943
!!!LING_GROUP: Muskogean
!!!LANG: Non-Tone
Specific Region: Oklahoma, California, Mississippi, Louisiana, Texas, Alabama
!!!REG: Southeast
!!!COM: Anon.
!!!OTL: Song for Success in the Ball Game
!!!ODT: <1933//
!!!MPN: Robert Henry
!!!MLC: Philadelphia, Mississippi, United States of America
!! Song was recorded in January 1933.
!!!AGN: monody
!!!AMT: simple duple
!!!RWG: Transcribed pitches, durations, and meters are only approximate.
**kern
*ICvox
*Imale
*clefF4
*k[f#c#g#]
*M2/4
*MM84
=1-
16A
16A
8A
8A
8A
=2
16A
16A
8A
8A
8A
=3
16c#
16B
8A
8A
8r
=4
16A
16A
8B
8B
8A
=5
16A
16A
8G#
8A
8G#
=6
16A
16A
8A
8A
8A
=7
16A
16A
8A
8A
8r
=8
16A
16A
8A
8A
8A
=9
16A
16A
8B
8B
8A
=10
16B
16B
8A
8B
8A
=11
16A
16A
8A
8A
8A
=12
16B
16B
8A
8A
8r
=13
16A
16A
8A
8A
8A
=14
8A
16A
16c#
8B
8A
=15
16B
16B
8A
8A
8A
=16
16B
16B
8A
8A
8r
=17
16A
16A
8c#
8B
8A
=18
16c#
16c#
8B
8A
8A
=19
16B
16B
8A
8A
8A
=20
16B
16B
8A
8A
8r
=21
16A
16A
8c#
8B
8A
=22
16c#
16c#
8B
8A
8A
=23
16B
16B
8A
8A
8A
=24
16B
16B
8A
8A
8r
==
*-
!!!CNT: Choctaw
!!!TXO: Choctaw
!!!OCY: United States
!!!OCL: Frances Densmore
!!!YOR: Frances Densmore, "Choctaw Music"
!!!YOR: Bulletin 136, page 131, No. 6
!!!PPR: Smithsonian Institution, Bureau of American Ethnology
!!!PPR: Government Printing Office
!!!PDT: 1943
!!!PPP: Washington, DC, United States of America
!!!YEC: Electronic Copyright 2000 David Huron
!!!YER: August 2000
!!!YEN: United States of America
!!!ENC: David Huron
!!!RDT: August 27, 2000
!!!EEV: Release 1.0
!!!AIN: vox
